packages/core/src/svgs/tokens/mono/NHT.svg

<svg width="24" height="24" viewBox="0 0 24 24" fill="none" xmlns="http://www.w3.org/2000/svg">
<path d="M17 4.5125C16.9562 8.49994 13.6625 9.51245 12 9.49991L12.0063 13.7936H22V4.5L17 4.5125Z" fill="white"/>
<path d="M17.3249 19.4999H12V14.4999H17V4.50002H17.4437C18.6401 4.49661 19.7897 4.96528 20.6427 5.80426C21.4958 6.64325 21.9835 7.78485 22 8.9812V14.7749C21.9887 16.016 21.4942 17.2038 20.6213 18.0861C19.7483 18.9683 18.5658 19.4755 17.3249 19.4999Z" fill="white"/>
<path d="M6.99976 14.5H16.9997C12.9496 14.5 12.006 17.6686 11.9997 19.3749C11.9373 15.5374 8.86849 14.5375 7.18725 14.5H6.99976Z" fill="white"/>
<path d="M12.0251 9.26236V9.82483H6.86255V4.53735H7.30004C8.55317 4.53735 9.75505 5.03516 10.6411 5.92125C11.5272 6.80735 12.0251 8.00917 12.0251 9.26236Z" fill="white"/>
<path d="M2.11874 19.4999H2V8.99994C2 7.80648 2.4741 6.66191 3.318 5.818C4.16191 4.9741 5.30648 4.5 6.49994 4.5H6.99994C6.99994 8.37495 10.0311 9.48124 11.5 9.49991H12.3811C12.9828 9.48912 13.5805 9.5982 14.1396 9.82059C14.6986 10.043 15.208 10.3743 15.6378 10.7955C16.0675 11.2165 16.4094 11.7189 16.6431 12.2733C16.8771 12.8278 16.9982 13.4232 16.9998 14.0249V14.4999H6.99994V14.5124C7.01069 15.1614 6.89256 15.8061 6.65239 16.4091C6.41221 17.0121 6.05477 17.5615 5.60077 18.0254C5.14675 18.4893 4.60522 18.8584 4.00752 19.1115C3.40981 19.3645 2.76782 19.4967 2.11874 19.4999Z" fill="white"/>
</svg>

<svg xmlns="http://www.w3.org/2000/svg" width="24" height="24" fill="none" viewBox="0 0 24 24">
    <path fill="#fff" d="M17 4.513c-.044 3.987-3.338 5-5 4.987l.006 4.294H22V4.5z"/>
    <path fill="#fff" d="M17.325 19.5H12v-5h5v-10h.444A4.544 4.544 0 0 1 22 8.981v5.794a4.77 4.77 0 0 1-4.675 4.725"/>
    <path fill="#fff" d="M7 14.5h10c-4.05 0-4.994 3.169-5 4.875-.063-3.838-3.132-4.837-4.813-4.875zm5.025-5.238v.563H6.863V4.537H7.3a4.725 4.725 0 0 1 4.725 4.725"/>
    <path fill="#fff" d="M2.119 19.5H2V9a4.5 4.5 0 0 1 4.5-4.5H7c0 3.875 3.031 4.981 4.5 5h.881A4.54 4.54 0 0 1 17 14.025v.475H7v.012A4.906 4.906 0 0 1 2.119 19.5"/>
</svg>
